**kern	**kern	**dynam
*part1	*part1	*part1
*staff2	*staff1	*
*I"Piano	*	*
*clefF4	*clefG2	*
*k[b-e-a-d-]	*k[b-e-a-d-]	*
=1	=1	=1
*^	*	*
[4f	2.r	8a-] 8cc] 8ee-]	.
.	.	4a- 4cc 4ee-	.
12fL]	.	.	.
12g	.	.	.
.	.	4cc 4ee-	.
12a-J	.	.	.
8g~L	.	.	.
8e-~J	.	8a- 8cc 8ee-	.
=	=	=	=
.	(((8qEE-/ 8qE-	.	.
2.f~	[2.EE-))) [2.E-	8a- 8b- 8dd-	.
.	.	4a- 4b- 4dd-	.
.	.	4a- 4b- 4ff	.
.	.	[8b- [8dd- [8aa-	.
=	=	=	=
2.d-~	2.EE-]) 2.E-]	8b-] 8dd-] 8aa-]	.
!	!	!LO:TX:b:i:t=dim.	!
.	.	4dd- 4ff 4bb-	.
.	.	4ff 4aa- 4ddd-	.
.	.	8aa- 8bb- 8fff	.
*v	*v	*	*
=	=	=
2.AA-: 2.E-: 2.c:	2.aa- 2.ccc 2.aaa-	ppp
=	=	=
2.AA-: 2.E-: 2.c:	2.aa- 2.ccc 2.aaa-	.
=	=	=
[2.AA-: [2.E-: [2.c:	[2.aa- [2.ccc [2.aaa-	.
=	=	=
4AA-] 4E-] 4c]	4aa-] 4ccc] 4aaa-]	.
4r	4r	.
4r;	4r;	.
==	==	==
*-	*-	*-
!!!system-decoration: {(s1,s2)}
